www/assets/icons/set_meal.svg

<svg width="24" height="24" viewBox="0 0 24 24" xmlns="http://www.w3.org/2000/svg" fill='currentColor'><path d="M21.05 17.5698L3.08 18.5098L3 17.0098L20.98 16.0698L21.05 17.5698ZM21 19.4898H3V20.9898H21V19.4898ZM22 5.00977V12.0098C22 13.1098 21.1 14.0098 20 14.0098H4C2.9 14.0098 2 13.1098 2 12.0098V5.00977C2 3.90977 2.9 3.00977 4 3.00977H20C21.1 3.00977 22 3.90977 22 5.00977ZM20 6.00977C18.32 6.00977 16.96 6.98977 16.79 8.23977C16.15 7.50977 14.06 5.50977 10.25 5.50977C5.58 5.50977 3.5 8.50977 3.5 8.50977C3.5 8.50977 5.58 11.5098 10.25 11.5098C14.06 11.5098 16.15 9.50977 16.79 8.77977C16.96 10.0298 18.32 11.0098 20 11.0098V6.00977Z"/></svg>

<svg xmlns="http://www.w3.org/2000/svg" width="24" height="24" viewBox="0 0 24 24" fill='currentColor'><path d="m21.05 17.57-17.97.94-.08-1.5 17.98-.94zM21 19.49H3v1.5h18zm1-14.48v7c0 1.1-.9 2-2 2H4c-1.1 0-2-.9-2-2v-7c0-1.1.9-2 2-2h16c1.1 0 2 .9 2 2m-2 1c-1.68 0-3.04.98-3.21 2.23-.64-.73-2.73-2.73-6.54-2.73-4.67 0-6.75 3-6.75 3s2.08 3 6.75 3c3.81 0 5.9-2 6.54-2.73.17 1.25 1.53 2.23 3.21 2.23z"/></svg>
